src/22/panel/bitwarden-tray.svg

<svg xmlns="http://www.w3.org/2000/svg" width="22" height="22" version="1.1">
 <defs>
  <style id="current-color-scheme" type="text/css">
   .ColorScheme-Text { color:#dfdfdf; } .ColorScheme-Highlight { color:#4285f4; }
  </style>
 </defs>
 <path style="fill:currentColor" class="ColorScheme-Text" d="M 11 3 C 4.6597698 3.0002075 4.4972205 3.0034194 4.3320312 3.0996094 C 3.9813623 3.3038871 4 3.0517391 4 7.8144531 C 4 12.647547 3.9943346 12.551002 4.3769531 13.488281 C 4.8171534 14.566471 5.5255238 15.476556 6.6894531 16.466797 C 7.6660619 17.297672 8.8237495 18.05076 10.115234 18.689453 C 10.552159 18.905531 10.778121 19.003571 11 19 C 11.221879 19.0035 11.447839 18.905535 11.884766 18.689453 C 13.17625 18.05076 14.333937 17.297672 15.310547 16.466797 C 16.474476 15.476556 17.182847 14.566471 17.623047 13.488281 C 18.005727 12.551001 18 12.647547 18 7.8144531 C 18 3.0517354 18.018633 3.3038871 17.667969 3.0996094 C 17.50278 3.0034034 17.340231 3.000207 11 3 z M 11 5 C 13.808426 5.0000917 15.08168 5.0030098 15.978516 5.0117188 C 15.989059 5.626764 16 6.1125284 16 7.8144531 C 16 10.231926 15.995104 11.435738 15.958984 11.980469 C 15.922904 12.5252 15.970444 12.245121 15.771484 12.732422 C 15.46611 13.480382 15.023376 14.085991 14.015625 14.943359 C 13.181146 15.653316 12.157854 16.321681 11 16.894531 L 11 5 z"/>
</svg>

<svg xmlns="http://www.w3.org/2000/svg" width="22" height="22"><defs><style id="current-color-scheme" type="text/css">.ColorScheme-Text{color:#dfdfdf;}.ColorScheme-Highlight{color:#5294e2;}</style></defs><defs><style id="current-color-scheme" type="text/css"></style></defs><path d="M11 3c-6.34 0-6.503.003-6.668.1C3.982 3.304 4 3.052 4 7.814c0 4.834-.006 4.737.377 5.674.44 1.078 1.149 1.989 2.312 2.979.977.83 2.135 1.584 3.426 2.222.437.217.663.315.885.311.222.003.448-.094.885-.31 1.291-.64 2.449-1.392 3.426-2.223 1.163-.99 1.872-1.9 2.312-2.979.383-.937.377-.84.377-5.674 0-4.762.019-4.51-.332-4.714C17.503 3.003 17.34 3 11 3zm0 2c2.808 0 4.082.003 4.979.012.01.615.021 1.1.021 2.802 0 2.418-.005 3.622-.041 4.166-.036.545.011.265-.188.752-.305.748-.748 1.354-1.755 2.211-.835.71-1.858 1.379-3.016 1.952V5z" fill="currentColor" class="ColorScheme-Text"/></svg>
